img/whatsapp.svg

<svg width="42" height="42" viewBox="0 0 42 42" fill="none" xmlns="http://www.w3.org/2000/svg">
<g clip-path="url(#clip0)">
<path d="M21 42C32.598 42 42 32.598 42 21C42 9.40202 32.598 0 21 0C9.40202 0 0 9.40202 0 21C0 32.598 9.40202 42 21 42Z" fill="#5BB73B"/>
<path d="M29.5509 12.4544C28.3333 12.1499 26.5428 11.0983 25.3838 10.6767C20.8585 9.26258 14.7777 10.3939 13.0807 15.6262C12.9393 15.7677 12.6564 15.7677 12.515 15.7677C9.12106 19.7272 11.3837 24.5353 11.1009 28.9192C11.0043 30.4645 10.1917 31.831 9.146 32.9869L17.9465 41.7782C18.9435 41.9234 19.9626 41.9999 20.9999 41.9999C31.3716 41.9999 39.9862 34.4805 41.6921 24.5961L29.5509 12.4544Z" fill="#52891D"/>
<path d="M20.4126 8.89586C14.0118 9.20036 8.96076 14.5311 8.98004 20.9389C8.98594 22.8906 9.45713 24.7328 10.2884 26.3608L9.01227 32.5553C8.94329 32.8905 9.24549 33.1839 9.57837 33.105L15.6483 31.667C17.2078 32.4439 18.9594 32.8925 20.8131 32.9208C27.3554 33.0208 32.8103 27.8262 33.0145 21.2864C33.2328 14.2761 27.4472 8.56076 20.4126 8.89586ZM27.6554 27.5571C25.8779 29.3346 23.5142 30.3136 21.0002 30.3136C19.5283 30.3136 18.1188 29.9833 16.8112 29.3321L15.9661 28.9109L12.2444 29.7925L13.0277 25.9899L12.6114 25.1742C11.9325 23.8448 11.5883 22.4075 11.5883 20.9017C11.5883 18.3876 12.5673 16.0242 14.3449 14.2465C16.1066 12.4846 18.5087 11.4899 21.0004 11.4899C23.5142 11.4899 25.8778 12.469 27.6554 14.2465C29.4329 16.024 30.4119 18.3877 30.4119 20.9015C30.4121 23.3932 29.4172 25.7953 27.6554 27.5571Z" fill="white"/>
<path d="M26.8336 23.5084L24.5053 22.84C24.1994 22.7523 23.8696 22.8392 23.6466 23.0664L23.0771 23.6463C22.8371 23.8911 22.4729 23.9696 22.1551 23.8411C21.0536 23.3953 18.7367 21.3352 18.1453 20.305C17.9743 20.0078 18.0026 19.6363 18.2123 19.3648L18.7093 18.7218C18.904 18.4699 18.945 18.1314 18.8163 17.8402L17.8368 15.6247C17.6022 15.0941 16.9241 14.9395 16.481 15.3143C15.8313 15.864 15.0603 16.699 14.9667 17.6243C14.8014 19.2556 15.5011 21.3119 18.1464 23.7811C21.2026 26.634 23.6502 27.0106 25.244 26.6246C26.1479 26.4059 26.8702 25.5283 27.3258 24.8096C27.6368 24.3193 27.391 23.6687 26.8336 23.5084Z" fill="white"/>
<path d="M29.2036 12.1167L27.3806 13.9852C27.4734 14.0709 27.5658 14.1571 27.6555 14.247C29.4331 16.0245 30.4121 18.3882 30.4121 20.9019C30.4121 23.3936 29.4172 25.7956 27.6555 27.5574C25.878 29.335 23.5143 30.314 21.0003 30.314C19.5283 30.314 18.119 29.9837 16.8113 29.3324L15.9662 28.9113L12.2445 29.7929L12.3214 29.4194L9.02588 32.7968C9.09856 33.0152 9.3298 33.1639 9.57828 33.1051L15.6482 31.667C17.2077 32.444 18.9593 32.8925 20.813 32.9208C27.3553 33.0208 32.8103 27.8263 33.0144 21.2864C33.1271 17.666 31.6384 14.3912 29.2036 12.1167Z" fill="#D1D1D1"/>
<path d="M26.8339 23.5086L24.5055 22.8401C24.1996 22.7524 23.8698 22.8393 23.6468 23.0665L23.0773 23.6465C22.8373 23.8913 22.4731 23.9698 22.1553 23.8412C21.5191 23.5837 20.4777 22.7876 19.5972 21.9624L17.9785 23.6215C18.0341 23.6746 18.0894 23.7277 18.1467 23.7813C21.2029 26.6342 23.6505 27.0108 25.2443 26.6248C26.1482 26.406 26.8705 25.5285 27.3261 24.8098C27.637 24.3195 27.3913 23.6688 26.8339 23.5086Z" fill="#D1D1D1"/>
</g>
<defs>
<clipPath id="clip0">
<rect width="42" height="42" fill="white"/>
</clipPath>
</defs>
</svg>

<svg width="42" height="42" fill="none" xmlns="http://www.w3.org/2000/svg"><g clip-path="url(#clip0)"><path d="M21 42c11.598 0 21-9.402 21-21S32.598 0 21 0 0 9.402 0 21s9.402 21 21 21z" fill="#5BB73B"/><path d="M29.55 12.454c-1.217-.304-3.007-1.356-4.166-1.777-4.526-1.414-10.606-.283-12.303 4.95-.142.14-.425.14-.566.14-3.394 3.96-1.131 8.768-1.414 13.152-.097 1.546-.91 2.912-1.955 4.068l8.8 8.791c.997.145 2.017.222 3.054.222 10.372 0 18.986-7.52 20.692-17.404L29.551 12.454z" fill="#52891D"/><path d="M20.413 8.896C14.012 9.2 8.96 14.53 8.98 20.939a11.968 11.968 0 0 0 1.308 5.422l-1.276 6.194a.468.468 0 0 0 .566.55l6.07-1.438a11.962 11.962 0 0 0 5.165 1.254c6.542.1 11.997-5.095 12.201-11.635.219-7.01-5.567-12.725-12.601-12.39zm7.242 18.661A9.35 9.35 0 0 1 21 30.314a9.315 9.315 0 0 1-4.189-.982l-.845-.421-3.722.881.784-3.802-.417-.816a9.305 9.305 0 0 1-1.023-4.272 9.35 9.35 0 0 1 2.757-6.656A9.428 9.428 0 0 1 21 11.49a9.35 9.35 0 0 1 6.655 2.756 9.35 9.35 0 0 1 2.757 6.655 9.428 9.428 0 0 1-2.757 6.656z" fill="#fff"/><path d="M26.834 23.508l-2.329-.668a.868.868 0 0 0-.858.226l-.57.58a.848.848 0 0 1-.922.195c-1.101-.446-3.418-2.506-4.01-3.536a.848.848 0 0 1 .067-.94l.497-.643a.868.868 0 0 0 .107-.882l-.98-2.215a.868.868 0 0 0-1.355-.31c-.65.549-1.42 1.384-1.514 2.31-.166 1.63.534 3.687 3.18 6.156 3.056 2.853 5.503 3.23 7.097 2.844.904-.22 1.626-1.097 2.082-1.815a.869.869 0 0 0-.492-1.302z" fill="#fff"/><path d="M29.204 12.117l-1.823 1.868c.092.086.185.172.274.262a9.35 9.35 0 0 1 2.757 6.655 9.429 9.429 0 0 1-2.756 6.655A9.35 9.35 0 0 1 21 30.314a9.313 9.313 0 0 1-4.189-.982l-.845-.42-3.721.88.076-.373-3.295 3.378a.468.468 0 0 0 .552.308l6.07-1.438a11.961 11.961 0 0 0 5.165 1.254c6.542.1 11.997-5.095 12.201-11.635a11.99 11.99 0 0 0-3.81-9.17z" fill="#D1D1D1"/><path d="M26.834 23.509l-2.328-.669a.868.868 0 0 0-.86.227l-.569.58a.848.848 0 0 1-.922.194c-.636-.257-1.677-1.053-2.558-1.879l-1.619 1.66.169.16c3.056 2.852 5.504 3.229 7.097 2.843.904-.219 1.627-1.096 2.082-1.815a.869.869 0 0 0-.492-1.301z" fill="#D1D1D1"/></g><defs><clipPath id="clip0"><path fill="#fff" d="M0 0h42v42H0z"/></clipPath></defs></svg>
